Flat-Remix-Blue/mimetypes/scalable/text-x-lua.svg

<svg xmlns="http://www.w3.org/2000/svg" xmlns:xlink="http://www.w3.org/1999/xlink" width="36pt" height="36pt" version="1.1" viewBox="0 0 36 36"> <defs> <clipPath id="clip1"> <path d="M 20 2 L 31 2 L 31 13 L 20 13 Z M 20 2"/> </clipPath> <clipPath id="clip2"> <path d="M 20.515625 2.625 L 30.328125 12.4375 L 22.023438 12.4375 C 21.292969 12.4375 20.515625 11.660156 20.515625 10.929688 Z M 20.515625 2.625"/> </clipPath> <image id="image6" width="36" height="36" xlink:href="data:image/png;base64,iVBORw0KGgoAAAANSUhEUgAAACQAAAAkCAYAAADhAJiYAAAABmJLR0QA/wD/AP+gvaeTAAAAmklEQVRYhe3T0QqCQBBG4aOtYEoUvf9Lildltl00C4tkbBeTIP+BAUEYP1YW1Pcqh53B9kbgaVPcwQF0tAmGSrMZ6AKcDQXw+AUVHEAtcAUaewYYgYmC3+cBCkAPnDJQMcoDVNnebgEqQnmAclTz4d0I3P4JStc9AjXvk4qLWQV53LLeEOl05gw4A3dgcPiuUkoppZRSSqk99gLWvSJpuDnlsAAAAABJRU5ErkJggg=="/> </defs> <g> <path style="fill:rgb(54.901%,25.882%,67.058%)" d="M 7.347656 3.152344 C 6.675781 3.152344 6.042969 3.785156 6.042969 4.457031 L 6.042969 31.847656 C 6.042969 32.480469 6.714844 33.152344 7.347656 33.152344 L 28.21875 33.152344 C 28.851562 33.152344 29.523438 32.480469 29.523438 31.847656 L 29.523438 11.632812 L 21.042969 3.152344 Z M 7.347656 3.152344"/> <g clip-path="url(#clip1)"> <g clip-path="url(#clip2)"> <use xlink:href="#image6"/> </g> </g> <path style="fill:rgb(68.235%,47.843%,76.862%)" d="M 21.042969 3.152344 L 29.523438 11.632812 L 22.347656 11.632812 C 21.714844 11.632812 21.042969 10.960938 21.042969 10.328125 Z M 21.042969 3.152344"/> <path style="fill-rule:evenodd;fill:rgb(100.000%,100.000%,100.000%)" d="M 22.359375 15.09375 C 21.558594 15.09375 20.90625 15.746094 20.90625 16.546875 C 20.90625 17.347656 21.558594 18 22.359375 18 C 23.160156 18 23.8125 17.347656 23.8125 16.546875 C 23.8125 15.746094 23.160156 15.09375 22.359375 15.09375 Z M 17.03125 17.03125 C 14.355469 17.03125 12.1875 19.199219 12.1875 21.875 C 12.1875 24.550781 14.355469 26.71875 17.03125 26.71875 C 19.707031 26.71875 21.875 24.550781 21.875 21.875 C 21.875 19.199219 19.707031 17.03125 17.03125 17.03125 Z M 18.484375 18.96875 C 19.285156 18.96875 19.9375 19.621094 19.9375 20.421875 C 19.9375 21.222656 19.285156 21.875 18.484375 21.875 C 17.683594 21.875 17.03125 21.222656 17.03125 20.421875 C 17.03125 19.621094 17.683594 18.96875 18.484375 18.96875 Z M 18.484375 18.96875"/> </g> </svg>

<svg width="36pt" height="36pt" version="1.1" viewBox="0 0 36 36" xmlns="http://www.w3.org/2000/svg"><defs><filter id="a" x="-.192" y="-.192" width="1.384" height="1.384" color-interpolation-filters="sRGB"><feGaussianBlur stdDeviation="0.67843748"/></filter></defs><path d="m7.3477 3.1523c-0.67188 0-1.3047 0.63281-1.3047 1.3047v27.391c0 0.63281 0.67188 1.3047 1.3047 1.3047h20.871c0.63281 0 1.3047-0.67188 1.3047-1.3047v-20.215l-8.4805-8.4805z" fill="#8b41aa"/><path d="m20.668 3.5272 8.4805 8.4805h-7.1758c-0.63281 0-1.3047-0.67187-1.3047-1.3047z" filter="url(#a)" opacity=".2"/><path d="m21.043 3.1523 8.4805 8.4805h-7.1758c-0.63281 0-1.3047-0.67187-1.3047-1.3047z" fill="#ad79c3"/><path d="m22.359 15.094c-0.80078 0-1.4531 0.65234-1.4531 1.4531s0.65234 1.4531 1.4531 1.4531 1.4531-0.65234 1.4531-1.4531-0.65234-1.4531-1.4531-1.4531zm-5.3281 1.9375c-2.6758 0-4.8438 2.168-4.8438 4.8438s2.168 4.8438 4.8438 4.8438 4.8438-2.168 4.8438-4.8438-2.168-4.8438-4.8438-4.8438zm1.4531 1.9375c0.80078 0 1.4531 0.65234 1.4531 1.4531s-0.65234 1.4531-1.4531 1.4531-1.4531-0.65234-1.4531-1.4531 0.65234-1.4531 1.4531-1.4531z" fill="#fff" fill-rule="evenodd"/></svg>
